X: 20808
T: Johnny Spillane's Favourite
R: polka
M: 2/4
K: Dmajor
|:Ad f/e/d/c/|dF A>B|cB G>B|AD FG|
Ad f/e/d/c/|dF A>d|cB GE|ED D2:|
|:ad de/d/|cb b^a|bB c>B|Aa a/b/a/^g/|
ad de/d/|cb b^a|bB cB/c/|ed d2:|

